tellnet/images/map-images/dinner.svg

<svg width="67" height="67" viewBox="0 0 67 67" fill="none" xmlns="http://www.w3.org/2000/svg">
<path d="M0.244567 33.4224C0.251173 26.349 2.51612 19.4626 6.70945 13.7662C10.9028 8.06989 16.8054 3.86128 23.5574 1.75353C30.3094 -0.354232 37.5581 -0.251016 44.2473 2.04814C50.9366 4.34729 56.717 8.72226 60.7464 14.5357C64.7759 20.3491 66.8438 27.2973 66.649 34.368C66.4542 41.4386 64.0069 48.2624 59.6635 53.8451C55.3201 59.4279 49.3076 63.478 42.5018 65.4053C35.6961 67.3327 28.4528 67.0367 21.8271 64.5604C21.781 64.5433 21.7387 64.5173 21.7026 64.4839C21.6666 64.4504 21.6375 64.4102 21.617 64.3655C21.5965 64.3208 21.5851 64.2725 21.5834 64.2233C21.5816 64.1742 21.5896 64.1252 21.6068 64.0791C21.6241 64.0331 21.6502 63.9909 21.6838 63.955C21.7174 63.919 21.7578 63.8901 21.8026 63.8698C21.8474 63.8495 21.8957 63.8383 21.9449 63.8368C21.994 63.8352 22.043 63.8434 22.089 63.8608C28.5731 66.2899 35.6636 66.5845 42.3268 64.7016C48.9901 62.8188 54.8778 58.8569 59.1317 53.3935C63.3856 47.9301 65.7834 41.2509 65.9754 34.3294C66.1674 27.4079 64.1438 20.6059 60.1993 14.9151C56.2549 9.22424 50.5959 4.942 44.0473 2.69255C37.4987 0.44311 30.4028 0.344072 23.794 2.40988C17.1852 4.47568 11.4089 8.59833 7.30717 14.1769C3.20545 19.7554 0.992723 26.4982 0.991522 33.4224C0.991522 33.5214 0.952174 33.6164 0.882134 33.6865C0.812093 33.7565 0.717097 33.7959 0.618045 33.7959C0.518992 33.7959 0.423996 33.7565 0.353956 33.6865C0.283915 33.6164 0.244567 33.5214 0.244567 33.4224Z" fill="white"/>
<path d="M2.84387 33.1383C2.86648 26.8577 4.78563 20.7303 8.3499 15.5589C11.9142 10.3876 16.9573 6.41335 22.8187 4.15696C22.8646 4.13953 22.9134 4.13129 22.9624 4.13273C23.0114 4.13416 23.0597 4.14524 23.1044 4.16532C23.1492 4.1854 23.1895 4.2141 23.2232 4.24978C23.2568 4.28545 23.2831 4.32741 23.3005 4.37325C23.318 4.41908 23.3262 4.4679 23.3248 4.51692C23.3233 4.56594 23.3123 4.6142 23.2922 4.65894C23.2721 4.70368 23.2434 4.74402 23.2077 4.77767C23.172 4.81132 23.1301 4.83761 23.0843 4.85505C17.9281 6.81583 13.4062 10.149 10.0075 14.494C6.6088 18.839 4.46271 24.0306 3.80133 29.5072C3.13994 34.9837 3.98842 40.5369 6.25501 45.5661C8.52161 50.5953 12.1201 54.9092 16.6612 58.041C21.2023 61.1729 26.5132 63.0037 32.0196 63.3353C37.526 63.6669 43.0183 62.4868 47.9024 59.9226C52.7866 57.3583 56.8768 53.5076 59.7306 48.7867C62.5844 44.0659 64.0932 38.6547 64.0939 33.1383C64.0939 33.0393 64.1332 32.9443 64.2032 32.8742C64.2733 32.8042 64.3683 32.7649 64.4673 32.7649C64.5664 32.7649 64.6614 32.8042 64.7314 32.8742C64.8015 32.9443 64.8408 33.0393 64.8408 33.1383C64.8428 37.2104 64.0425 41.2429 62.4856 45.0056C60.9286 48.7683 58.6456 52.1873 55.767 55.0674C52.8883 57.9475 49.4704 60.2322 45.7085 61.791C41.9466 63.3497 37.9144 64.152 33.8423 64.152C29.7703 64.152 25.7381 63.3497 21.9762 61.791C18.2143 60.2322 14.7964 57.9475 11.9177 55.0674C9.03906 52.1873 6.75604 48.7683 5.19912 45.0056C3.6422 41.2429 2.84187 37.2104 2.84387 33.1383V33.1383Z" fill="white"/>
<path d="M45.906 37.5845V32.5137C45.906 32.1545 45.7633 31.81 45.5093 31.5559C45.2553 31.3019 44.9107 31.1592 44.5515 31.1592H21.524C21.1647 31.1592 20.8202 31.3019 20.5662 31.5559C20.3121 31.81 20.1694 32.1545 20.1694 32.5137V37.5845C20.1694 42.6391 24.267 46.7366 29.3215 46.7366H36.754C41.8085 46.7366 45.906 42.6391 45.906 37.5845Z" stroke="white" stroke-miterlimit="10" stroke-linecap="round" stroke-linejoin="round"/>
<path d="M45.2287 35.2231H20.8467" stroke="white" stroke-miterlimit="10" stroke-linecap="round"/>
<path d="M37.7788 28.4502C37.7788 26.7577 39.1334 26.7577 39.1334 25.0652C39.1334 23.372 37.7788 23.372 37.7788 21.6788C37.7788 19.9856 39.1334 19.9842 39.1334 18.291" stroke="white" stroke-miterlimit="10" stroke-linecap="round"/>
<path d="M34.3921 28.4502C34.3921 26.7577 35.7466 26.7577 35.7466 25.0652C35.7466 23.372 34.3921 23.372 34.3921 21.6788C34.3921 19.9856 35.7466 19.9842 35.7466 18.291" stroke="white" stroke-miterlimit="10" stroke-linecap="round"/>
<path d="M31.0059 28.4502C31.0059 26.7577 32.3604 26.7577 32.3604 25.0652C32.3604 23.372 31.0059 23.372 31.0059 21.6788C31.0059 19.9856 32.3604 19.9842 32.3604 18.291" stroke="white" stroke-miterlimit="10" stroke-linecap="round"/>
<path d="M27.6196 28.4502C27.6196 26.7577 28.9742 26.7577 28.9742 25.0652C28.9742 23.372 27.6196 23.372 27.6196 21.6788C27.6196 19.9856 28.9742 19.9842 28.9742 18.291" stroke="white" stroke-miterlimit="10" stroke-linecap="round"/>
</svg>

<?xml version="1.0" encoding="UTF-8" standalone="no"?>
<svg width="67" xmlns="http://www.w3.org/2000/svg" fill="none" viewBox="0 0 67 67" height="67">
 <path d="m0.24457 33.422c0.0066-7.073 2.2715-13.959 6.4648-19.656 4.1936-5.6961 10.096-9.9047 16.848-12.012 6.752-2.1082 14.001-2.005 20.69 0.2941 6.69 2.2992 12.47 6.6742 16.499 12.488 4.03 5.813 6.098 12.761 5.903 19.832s-2.642 13.894-6.985 19.477c-4.344 5.583-10.356 9.633-17.162 11.56-6.806 1.928-14.049 1.632-20.675-0.845-0.046-0.017-0.088-0.043-0.124-0.076-0.036-0.034-0.065-0.074-0.086-0.118-0.021-0.045-0.032-0.094-0.034-0.143-0.001-0.049 0.007-0.098 0.024-0.144s0.043-0.088 0.077-0.124c0.033-0.036 0.074-0.065 0.119-0.085 0.044-0.02 0.093-0.032 0.142-0.033 0.049-0.002 0.098 0.006 0.144 0.024 6.484 2.429 13.575 2.723 20.238 0.841 6.663-1.883 12.551-5.845 16.805-11.308 4.254-5.464 6.651-12.143 6.843-19.065 0.192-6.921-1.831-13.723-5.776-19.414-3.944-5.6908-9.603-9.973-16.152-12.222-6.548-2.2499-13.644-2.3489-20.253-0.2831s-12.385 6.1884-16.487 11.767c-4.1016 5.578-6.3143 12.321-6.3155 19.245 0.00002 0.099-0.03933 0.194-0.10937 0.264s-0.16503 0.11-0.26409 0.11c-0.09905 0-0.19404-0.04-0.26408-0.11s-0.10939-0.165-0.10939-0.264z" fill="#fff"/>
 <path d="m2.8439 33.138c0.0226-6.28 1.9417-12.408 5.506-17.579 3.5641-5.171 8.6071-9.1456 14.469-11.402 0.046-0.0175 0.094-0.0257 0.143-0.0243 0.049 0.0015 0.098 0.0125 0.142 0.0326 0.045 0.0201 0.086 0.0488 0.119 0.0845 0.034 0.0356 0.06 0.0776 0.077 0.1234 0.018 0.0459 0.026 0.0947 0.025 0.1437-0.002 0.049-0.013 0.0973-0.033 0.142-0.02 0.0448-0.049 0.0851-0.084 0.1188-0.036 0.0336-0.078 0.0599-0.124 0.0773-5.156 1.9608-9.678 5.294-13.076 9.639-3.3992 4.345-5.5453 9.537-6.2067 15.013-0.6614 5.477 0.1871 11.03 2.4537 16.059s5.865 9.343 10.406 12.475 9.852 4.963 15.359 5.294c5.506 0.332 10.998-0.848 15.882-3.412 4.885-2.565 8.975-6.415 11.829-11.136 2.853-4.721 4.362-10.132 4.363-15.649 0-0.099 0.039-0.194 0.109-0.264s0.165-0.109 0.264-0.109 0.194 0.039 0.264 0.109c0.071 0.07 0.11 0.165 0.11 0.264 0.002 4.072-0.799 8.105-2.355 11.868-1.557 3.762-3.84 7.181-6.719 10.061-2.879 2.881-6.297 5.165-10.059 6.724-3.761 1.559-7.794 2.361-11.866 2.361s-8.104-0.802-11.866-2.361-7.18-3.843-10.058-6.724c-2.8789-2.88-5.162-6.299-6.7189-10.061-1.5569-3.763-2.3572-7.796-2.3552-11.868z" fill="#fff"/>
 <path stroke-linejoin="round" stroke="#fff" stroke-linecap="round" stroke-miterlimit="10" d="m45.906 37.584v-5.07c0-0.36-0.143-0.704-0.397-0.958s-0.598-0.397-0.957-0.397h-23.028c-0.359 0-0.704 0.143-0.958 0.397s-0.397 0.598-0.397 0.958v5.07c0 5.055 4.098 9.153 9.153 9.153h7.432c5.054 0 9.152-4.098 9.152-9.153z"/>
 <path stroke="#fff" stroke-linecap="round" stroke-miterlimit="10" d="m45.229 35.223h-24.382"/>
 <path stroke="#fff" stroke-linecap="round" stroke-miterlimit="10" d="m37.779 28.45c0-1.692 1.354-1.692 1.354-3.385s-1.354-1.693-1.354-3.386 1.354-1.695 1.354-3.388"/>
 <path stroke="#fff" stroke-linecap="round" stroke-miterlimit="10" d="m34.392 28.45c0-1.692 1.355-1.692 1.355-3.385s-1.355-1.693-1.355-3.386 1.355-1.695 1.355-3.388"/>
 <path stroke="#fff" stroke-linecap="round" stroke-miterlimit="10" d="m31.006 28.45c0-1.692 1.354-1.692 1.354-3.385s-1.354-1.693-1.354-3.386 1.354-1.695 1.354-3.388"/>
 <path stroke="#fff" stroke-linecap="round" stroke-miterlimit="10" d="m27.62 28.45c0-1.692 1.354-1.692 1.354-3.385s-1.354-1.693-1.354-3.386 1.354-1.695 1.354-3.388"/>
</svg>
